packages/icons/src/svgs/UI/Question.svg

<?xml version="1.0" encoding="utf-8"?>
<!-- Generator: Adobe Illustrator 24.0.1, SVG Export Plug-In . SVG Version: 6.00 Build 0)  -->
<svg version="1.1" id="Layer_1" xmlns="http://www.w3.org/2000/svg" xmlns:xlink="http://www.w3.org/1999/xlink" x="0px" y="0px"
	 width="16px" height="16px" viewBox="0 0 16 16" enable-background="new 0 0 16 16" xml:space="preserve">
<path id="path-1_1_" fill-rule="evenodd" clip-rule="evenodd" fill="#181C56" d="M8,1C4.1500001,1,1,4.1500001,1,8s3.1500001,7,7,7
	s7-3.1499996,7-7S11.8500004,1,8,1"/>
<path id="Icon-Fill" fill-rule="evenodd" clip-rule="evenodd" fill="#FFFFFF" d="M8.0050001,10.8818178
	c0.4832487,0,0.875,0.3917513,0.875,0.875c0,0.4832497-0.3917513,0.875-0.875,0.875s-0.875-0.3917503-0.875-0.875
	C7.1300001,11.2735691,7.5217509,10.8818178,8.0050001,10.8818178z M8,4c1.4047813,0,2.6090908,1.2043099,2.6090908,2.6090908
	c0,1.1346312-0.7856522,2.1384811-1.828021,2.4826164L8.6990004,9.1148186l0.0009995,0.739727H7.3000002V8.5181818
	c0-0.3543825,0.2633433-0.6472583,0.6050138-0.6936097L8,7.818182c0.6315823,0,1.2090912-0.5775084,1.2090912-1.2090912
	S8.6315823,5.4000001,8,5.4000001c-0.3899522,0-0.8324223,0.2922192-1.0856647,0.6973825L6.8442807,6.2221403L6.5312314,6.8482394
	L5.2790332,6.2221403L5.592083,5.5960412C6.0488963,4.6824145,6.999402,4,8,4z"/>
</svg>

<?xml version="1.0" encoding="UTF-8"?>
<svg width="16px" height="16px" enable-background="new 0 0 16 16" version="1.1" viewBox="0 0 16 16" xml:space="preserve" xmlns="http://www.w3.org/2000/svg">
<path id="path-1_1_" d="m8 1c-3.85 0-7 3.15-7 7 0 3.85 3.15 7 7 7 3.85 0 7-3.15 7-7 0-3.85-3.15-7-7-7zm0 3c1.4048 0 2.6094 1.2046 2.6094 2.6094 0 1.1346-0.78576 2.1383-1.8281 2.4824l-0.082031 0.023438v0.74023h-1.3984v-1.3379c0-0.35438 0.26185-0.64701 0.60352-0.69336l0.095703-0.0058594c0.63158 0 1.209-0.5774 1.209-1.209s-0.5774-1.209-1.209-1.209c-0.38995 0-0.8327 0.2921-1.0859 0.69727l-0.070312 0.125-0.3125 0.625-1.252-0.625 0.3125-0.62695c0.45681-0.91363 1.4076-1.5957 2.4082-1.5957zm0.0058594 6.8809c0.48325 0 0.875 0.39175 0.875 0.875 0 0.48325-0.39175 0.875-0.875 0.875s-0.875-0.39175-0.875-0.875c0-0.48325 0.39175-0.875 0.875-0.875z" fill="#181c56"/>
</svg>
